src/symbols/other-symbol/2733.svg

<svg id="emoji" viewBox="0 0 72 72" xmlns="http://www.w3.org/2000/svg">
  <g id="grid">
    <path fill="#b3b3b3" d="M68,4V68H4V4H68m4-4H0V72H72V0Z"/>
    <path fill="none" stroke="#00a5ff" stroke-miterlimit="10" stroke-width="0.1" d="M12.923,10.9583H59.0769A1.9231,1.9231,0,0,1,61,12.8814V59.0352a1.9231,1.9231,0,0,1-1.9231,1.9231H12.9231A1.9231,1.9231,0,0,1,11,59.0352V12.8813A1.923,1.923,0,0,1,12.923,10.9583Z"/>
    <rect x="16" y="4" rx="2.2537" ry="2.2537" width="40" height="64" fill="none" stroke="#00a5ff" stroke-miterlimit="10" stroke-width="0.1"/>
    <rect x="16" y="4" rx="2.2537" ry="2.2537" width="40" height="64" transform="translate(72) rotate(90)" fill="none" stroke="#00a5ff" stroke-miterlimit="10" stroke-width="0.1"/>
    <circle cx="36" cy="36" r="29" fill="none" stroke="#00a5ff" stroke-miterlimit="10" stroke-width="0.1"/>
  </g>
  <g id="line-supplement">
    <line x1="36" x2="36" y1="20.9811" y2="51.0189" fill="none" stroke="#000" stroke-linecap="round" stroke-linejoin="round" stroke-width="4"/>
    <line x1="51.0189" x2="20.9811" y1="36" y2="36" fill="none" stroke="#000" stroke-linecap="round" stroke-linejoin="round" stroke-width="4"/>
    <line x1="46.62" x2="25.38" y1="25.38" y2="46.62" fill="none" stroke="#000" stroke-linecap="round" stroke-linejoin="round" stroke-width="4"/>
    <line x1="46.62" x2="25.38" y1="46.62" y2="25.38" fill="none" stroke="#000" stroke-linecap="round" stroke-linejoin="round" stroke-width="4"/>
  </g>
  <g id="color">
    <path fill="#5c9e31" d="M60,60.9583H12a.9448.9448,0,0,1-1-1v-48a.9448.9448,0,0,1,1-1H60a.9448.9448,0,0,1,1,1v48A.9448.9448,0,0,1,60,60.9583Z"/>
    <line x1="36" x2="36" y1="20.9394" y2="50.9772" fill="none" stroke="#fff" stroke-linecap="round" stroke-linejoin="round" stroke-width="4"/>
    <line x1="51.0189" x2="20.9811" y1="35.9583" y2="35.9583" fill="none" stroke="#fff" stroke-linecap="round" stroke-linejoin="round" stroke-width="4"/>
    <line x1="46.62" x2="25.38" y1="25.3383" y2="46.5783" fill="none" stroke="#fff" stroke-linecap="round" stroke-linejoin="round" stroke-width="4"/>
    <line x1="46.62" x2="25.38" y1="46.5783" y2="25.3383" fill="none" stroke="#fff" stroke-linecap="round" stroke-linejoin="round" stroke-width="4"/>
  </g>
  <g id="line">
    <path fill="none" stroke="#000" stroke-linecap="round" stroke-linejoin="round" stroke-width="2" d="M60,61H12a.9448.9448,0,0,1-1-1V12a.9448.9448,0,0,1,1-1H60a.9448.9448,0,0,1,1,1V60A.9448.9448,0,0,1,60,61Z"/>
  </g>
</svg>

<svg viewBox="0 0 72 72" xmlns="http://www.w3.org/2000/svg"><path fill="#b3b3b3" d="M68 4v64H4V4h64m4-4H0v72h72V0z"/><path fill="none" stroke="#00a5ff" stroke-miterlimit="10" stroke-width=".1" d="M12.923 10.958h46.154A1.923 1.923 0 0161 12.881v46.154a1.923 1.923 0 01-1.923 1.923H12.923A1.923 1.923 0 0111 59.035V12.881a1.923 1.923 0 011.923-1.923z"/><rect x="16" y="4" rx="2.254" ry="2.254" width="40" height="64" fill="none" stroke="#00a5ff" stroke-miterlimit="10" stroke-width=".1"/><rect x="16" y="4" rx="2.254" ry="2.254" width="40" height="64" transform="rotate(90 36 36)" fill="none" stroke="#00a5ff" stroke-miterlimit="10" stroke-width=".1"/><circle cx="36" cy="36" r="29" fill="none" stroke="#00a5ff" stroke-miterlimit="10" stroke-width=".1"/><g stroke-linecap="round" stroke-miterlimit="10" stroke-width="6" stroke="#fff" fill="none" stroke-linejoin="round"><path d="M36 20.981v30.038M51.019 36H20.981M46.62 25.38L25.38 46.62m21.24 0L25.38 25.38M60 61H12a.945.945 0 01-1-1V12a.945.945 0 011-1h48a.945.945 0 011 1v48a.945.945 0 01-1 1z"/></g><path d="M36 20.981v30.038M51.019 36H20.981M46.62 25.38L25.38 46.62m21.24 0L25.38 25.38" fill="none" stroke="#000" stroke-linecap="round" stroke-linejoin="round" stroke-width="4"/><path fill="#5c9e31" d="M60 60.958H12a.945.945 0 01-1-1v-48a.945.945 0 011-1h48a.945.945 0 011 1v48a.945.945 0 01-1 1z"/><path fill="none" stroke="#fff" stroke-linecap="round" stroke-linejoin="round" stroke-width="4" d="M36 20.939v30.038m15.019-15.019H20.981m25.639-10.62l-21.24 21.24m21.24 0l-21.24-21.24"/><g><path fill="none" stroke="#000" stroke-linecap="round" stroke-linejoin="round" stroke-width="2" d="M60 61H12a.945.945 0 01-1-1V12a.945.945 0 011-1h48a.945.945 0 011 1v48a.945.945 0 01-1 1z"/></g></svg>
